!!!COM: Mozart, Wolfgang Amadeus
!!!OTL: String Quartet No. 23 in F Major
!!!OMD: Allegro moderato
!!!OMV: 1
!!!SCT1: K<sup>1</sup> 590
!!!SCA: Chronologisch-thematisches Verzeichnis sämtlicher Tonwerke Wolfgang Amade Mozarts (L. von Köchel; 1862, 2/1905, 3/1937, 1947)
!!!SCT2: K<sup>6</sup> 590
!!!YOR: Breitkopf & Härtel Edition
!!!ENC: Frances Bennion
!!!CDT: 1756/1/27/-1791/12/5/
!!!OCY: Österreich
!!!YEC: Copyright (c) 1994, 2000 Center for Computer Assisted Research in the Humanities
!!!YEM: Rights to all derivative editions reserved.
!!!YEM: Refer to licensing agreement for further details.
!!!YEN: United States of America
**kern	**kern	**kern	**kern
*k[b-]	*k[b-]	*k[b-]	*k[b-]
*F:	*F:	*F:	*F:
*clefC	*clefF	*clefG	*clefG
*M4/4	*M4/4	*M4/4	*M4/4
2F	2f	2f	2f
2A	2a	2a	2a
=2	=2	=2	=2
[2c	[2cc	[2cc	[2cc
8c]	8cc]	8cc]	8cc]
16d	16dd	16dd	16dd
16c	16cc	16cc	16cc
16B-	16b-	16b-	16b-
16A	16a	16a	16a
16G	16g	16g	16g
16F	16f	16f	16f
=3	=3	=3	=3
16E	16e	16e	16e
16D	16d	16d	16d
16C	16c	16c	16c
16BB-	16B-	16B-	16B-
8AA	8A	8A	8A
2r	2r	2r	2r
8r	8r	8r	8r
=4	=4	=4	=4
1r	1r	1r	2g
.	.	.	2b-
=5	=5	=5	=5
1BB-	1G	2G	[2cc#
.	.	4B-	8cc#]
.	.	.	16ee
.	.	.	16dd
.	.	4d	16cc
.	.	.	16b-
.	.	.	16a
.	.	.	16g
=6	=6	=6	=6
8C	8G	8B-	16f
.	.	.	16e
8r	8r	8r	16g
.	.	.	16e
8FF	8F	8A	8f
2r	2r	2r	2r
8r	8r	8r	8r
=7	=7	=7	=7
1r	1r	1r	2f
.	.	.	2a
=8	=8	=8	=8
4FF	8r	8r	[2cc
.	8A	8e-	.
2.r	8A	8e-	.
.	8A	8e-	.
.	8A	8e-	8cc]
.	8A	8e-	16ff
.	.	.	16ee-
.	8A	8e-	16dd
.	.	.	16cc
.	8c	8e-	16b-
.	.	.	16a
=9	=9	=9	=9
4FF	8r	8r	8cc
.	8B-	8d	8b-
2.r	8B-	8d	4.b-
.	8B-	8d	.
.	8B-	8d	.
.	8B-	8d	16aa
.	.	.	16gg
.	8B-	8e	16ff
.	.	.	16ee
.	8B-	8e	16dd
.	.	.	16cc
=10	=10	=10	=10
4FF	8r	8r	8cc
.	8A	8f	8ff
2.r	8A	8f	[4ff
.	8A	8f	.
.	8A	8f	16ff]
.	.	.	16gg
.	8A	8f	16ff
.	.	.	16ee-
.	8A	8e-	16dd
.	.	.	16cc
.	8c	8e-	16b-
.	.	.	16a
=11	=11	=11	=11
4FF	8r	8r	8cc
.	8B-	8d	8b-
2.r	8B-	8d	[4b-
.	8B-	8d	.
.	8B-	8d	16b-]
.	.	.	16dd
.	8B-	8d	16cc
.	.	.	16b-
.	8B-	8d	16a
.	.	.	16g
.	8G	8B-	16f
.	.	.	16e
=12	=12	=12	=12
8r	8F	8A	4f
4c	8f	8a	.
.	8e	8g	4.r
16d	8f	8f	.
16c	.	.	.
16B-	4g	4b-	.
16A	.	.	.
16G	.	.	8cc
16F	.	.	.
16E	8r	8r	8bb-
16D	.	.	.
16C	8c	8G	8ee
16BB-	.	.	.
=13	=13	=13	=13
8AA	8c	8A	4ff
4c	8f	8a	.
.	8e	8g	4.r
16d	8f	8f	.
16c	.	.	.
16B-	4g	4b-	.
16A	.	.	.
16G	.	.	8cc
16F	.	.	.
16E	8r	8r	8bb-
16D	.	.	.
16C	8c	8G	8ee
16BB-	.	.	.
=14	=14	=14	=14
2AA	2c	2A	16ff
.	.	.	16aa
.	.	.	16ccc
.	.	.	16bb-
.	.	.	16aa
.	.	.	16gg
.	.	.	16ff
.	.	.	16ee
4..BB-	4..d	4..G	16dd
.	.	.	16cc
.	.	.	16b-
.	.	.	16a
.	.	.	16g
.	.	.	16f
.	.	.	16e
16BB	16F	16G	16d
=15	=15	=15	=15
4C	4E	4G	4c
4CC	4c 4C	4cc 4e 4G	4cc 4e 4G
2r	2r	2r	2r
=16	=16	=16	=16
2cc	8r	8r	1r
.	8c	8e	.
.	8c	8e	.
.	8c	8e	.
2ee	8c	8e	.
.	8c	8e	.
.	8c	8e	.
.	8c	8e	.
=17	=17	=17	=17
[2gg	8r	8r	1r
.	8c	8e	.
.	8c	8e	.
.	8c	8e	.
8gg]	8c	8e	.
16aa	8c	8e	.
16gg	.	.	.
16ff	8c	8e	.
16ee	.	.	.
16dd	8c	8e	.
16cc	.	.	.
=18	=18	=18	=18
16cc	8r	8r	2r
16b	.	.	.
16dd	8d	8f	.
16cc	.	.	.
8b	8d	8f	.
2r	8d	8f	.
.	8d	8f	16cc
.	.	.	16b
.	8d	8f	16dd
.	.	.	16cc
.	8d	8f	8b
8r	8d	8f	8r
=19	=19	=19	=19
2b	8r	8r	1r
.	8d	8f	.
.	8d	8f	.
.	8d	8f	.
2dd	8d	8f	.
.	8d	8f	.
.	8d	8f	.
.	8d	8f	.
=20	=20	=20	=20
[2ff	8r	8r	1r
.	8d	8f	.
.	8d	8f	.
.	8d	8f	.
8ff]	8d	8f	.
16gg	8d	8f	.
16aa	.	.	.
16gg	8d	8f	.
16ff	.	.	.
16ee	8d	8f	.
16dd	.	.	.
=21	=21	=21	=21
16dd	8r	8r	2r
16cc#	.	.	.
16ee	8e	8g	.
16dd	.	.	.
8cc#	8e	8g	.
2r	8e	8g	.
.	8e	8g	16dd
.	.	.	16cc#
.	8e	8g	16ee
.	.	.	16dd
.	8e	8g	8cc#
8r	8e	8g	8r
=22	=22	=22	=22
16ee	8r	8r	2r
16dd	.	.	.
16ff	8f	8a	.
16ee	.	.	.
8dd	8f	8a	.
2r	8f	8a	.
.	8r	8r	16ff
.	.	.	16ee
.	8c#	8a	16gg
.	.	.	16ff
.	8c#	8a	8ee
8r	8c#	8a	8r
=23	=23	=23	=23
16gg	8r	8r	2r
16ff	.	.	.
16aa	8d	8a	.
16gg	.	.	.
8ff	8d	8a	.
2r	8d	8a	.
.	8r	8r	16cc
.	.	.	16b
.	8d	8f	16dd
.	.	.	16cc
.	8d	8f	8b
8r	8d	8f	8r
=24	=24	=24	=24
16dd	8r	8r	2r
16cc	.	.	.
16ee	8e	8g	.
16dd	.	.	.
8cc	8e	8g	.
2r	8e	8g	.
.	8r	8r	16ee
.	.	.	16dd
.	8B	8g	16ff
.	.	.	16ee
.	8B	8g	8dd
8r	8B	8g	8r
=25	=25	=25	=25
16ff	8r	8r	2r
16ee	.	.	.
16gg	8c	8g	.
16ff	.	.	.
8ee	8c	8g	.
2r	8c	8g	.
.	8r	8r	16gg
.	.	.	16ff#
.	8A	8c	16aa
.	.	.	16gg
.	8A	8c	8ff#
8r	8A	8c	8r
=26	=26	=26	=26
4G	16a	4B	8r
.	16g	.	.
.	16b	.	8d 8B
.	16a	.	.
4r	8g	4r	8d 8B
.	2r	.	8d 8B
4D	.	16gg	8r
.	.	16ff#	.
.	.	16aa	8d 8c
.	.	16gg	.
4r	.	8ff#	8d 8c
.	8r	8r	8d 8c
=27	=27	=27	=27
4G	16a	2r	8r
.	16g	.	.
.	16b	.	8d 8B
.	16a	.	.
4r	8g	.	8d 8B
.	2r	.	8d 8B
4D	.	16gg	8r
.	.	16ff#	.
.	.	16aa	8d 8c
.	.	16gg	.
4r	.	8ff#	8d 8c
.	8r	8r	8d 8c
=28	=28	=28	=28
4GG	4r	16gg	4d 4B
.	.	16ff#	.
.	.	16aa	.
.	.	16gg	.
2.r	16g	16bb	2r
.	16f#	16aa	.
.	16a	16ccc	.
.	16g	16bb	.
.	16b	8ddd	.
.	16a	.	.
.	16cc	8ccc	.
.	16b	.	.
.	8dd	8bb	8r
.	8cc	8aa	8ee
=29	=29	=29	=29
1r	8b	8gg	8dd
.	8a	8ff	8cc
.	8g	8ee	8b
.	8f	8dd	8a
.	8e	8cc	8g
.	8d	8b	8f
.	8c	8a	8e
.	8B	8g	8d
=30	=30	=30	=30
2.r	4A	4f#	2.c
.	4A-	4f	.
.	4G	4e	.
4GG	4F	4d	4B
=31	=31	=31	=31
8CC	4E	4c	4c
8EE	.	.	.
8GG	2.r	2.r	2.r
8C	.	.	.
8E	.	.	.
8G	.	.	.
8c	.	.	.
8e	.	.	.
=32	=32	=32	=32
8aa	1C	8r	8r
8gg	.	8G	4e
4.gg	.	8c	.
.	.	8G	4e
.	.	8c	.
16aa	.	8G	4e
16gg	.	.	.
16ff	.	8c	.
16ee	.	.	.
16dd	.	8G	8e
16cc	.	.	.
=33	=33	=33	=33
8b	[1G	8f	8d
8r	.	8g	8r
8cc	.	8e	8c
8r	.	8g	8r
8dd	.	8d	8B
8r	.	8g	8r
8ee	.	8c	8c
8r	.	8g	8r
=34	=34	=34	=34
4gg	4G]	4G	4e
8.ff	4.r	2.r	8.d
16ee	.	.	16c
4dd	.	.	4B
.	8G	.	.
4r	8F#	.	4r
.	8F	.	.
=35	=35	=35	=35
2cc	8E	4r	1r
.	8E	.	.
.	8E	4G#	.
.	8E	.	.
4cc	8F	4A	.
.	8F	.	.
4cc	8E	4G#	.
.	8E	.	.
=36	=36	=36	=36
8cc	8F	2.A	1r
8aa	8F	.	.
2aa	8F	.	.
.	8F	.	.
.	8F	.	.
.	8F	.	.
16gg	8F	4B	.
16ff	.	.	.
16ee	8F	.	.
16dd	.	.	.
=37	=37	=37	=37
4.cc	8E	4c	1r
.	8E	.	.
.	8A	2c	.
8ee	8A	.	.
4.dd	8F	.	.
.	8F	.	.
.	8G	4B	.
8gg	8G	.	.
=38	=38	=38	=38
2ff	2G	2d	8r
.	.	.	8g
.	.	.	8a
.	.	.	8b
4ee	4C	4c	8cc
.	.	.	8cc#
4r	4r	4r	8dd
.	.	.	8dd#
=39	=39	=39	=39
4C	8r	8r	8ee
.	8B	8d#	8b
4r	8c	8e	8cc
.	8c	8e	8ee
4C	8r	8r	8ff
.	8c#	8e	8cc#
4r	8d	8f	8dd
.	8d	8f	8ff
=40	=40	=40	=40
8C	8r	8r	8aa
8r	8c	8e	8gg
8C	8e	8g	4.gg
8r	8c	8e	.
8C	8e	8g	.
8r	8c	8e	16aa
.	.	.	16gg
8C	8e	8g	16ff
.	.	.	16ee
8r	8c	8e	16dd
.	.	.	16cc
=41	=41	=41	=41
1G	4d	8f	8b
.	.	8g	8b
.	4c	8e	8cc
.	.	8g	8cc
.	4B	8d	8dd
.	.	8g	8dd
.	4c	8c	8ee
.	.	8g	8ee
=42	=42	=42	=42
4GG	4G	8e	8gg
.	.	8d#	8ff#
2.r	4.r	8d	8ff
.	.	8c	8ee
.	.	4B	4dd
.	8g	.	.
.	8f#	4r	4r
.	8f	.	.
=43	=43	=43	=43
1r	8e	4r	2cc
.	8e	.	.
.	8e	4g#	.
.	8e	.	.
.	8f	4a	4cc
.	8f	.	.
.	8e	4g#	4cc
.	8e	.	.
=44	=44	=44	=44
1r	8f	2.a	8cc
.	8f	.	8aa
.	8f	.	2aa
.	8f	.	.
.	8f	.	.
.	8f	.	.
.	8f	4b	16gg
.	.	.	16ff
.	8f	.	16ee
.	.	.	16dd
=45	=45	=45	=45
1r	8e	4cc	4.cc
.	8e	.	.
.	8a	2cc	.
.	8a	.	8ee
.	8f	.	4.dd
.	8f	.	.
.	8g	4b	.
.	8g	.	8ff
=46	=46	=46	=46
4r	4c	4cc	8ee
.	.	.	8ccc
4e	8r	4cc	4ccc
.	4g#	.	.
4f	.	4cc	4ccc
.	4a	.	.
4e	.	4cc	4ccc
.	8g#	.	.
=47	=47	=47	=47
4f	4a	8cc	8ccc
.	.	8a	8aa
4c#	8.g	8r	8r
.	.	4a	4aa
.	16e	.	.
4d	8.f	.	.
.	.	4a	4aa
.	16d	.	.
4c#	8.g	.	.
.	.	8a	8aa
.	16e	.	.
=48	=48	=48	=48
8d	4f	8a	8aa
8d	.	8f	8ff
8c	4a-	2dd	8r
8c	.	.	4ff
8B	4g	.	.
8B	.	.	4ff
8c	4a-	4dd	.
8c	.	.	8ff
=49	=49	=49	=49
4B	4g	16dd	16ff
.	.	16ee	16gg
.	.	16ff	16aa
.	.	16ee	16gg
4r	4r	8dd	8ff
.	.	16r	16r
.	.	16dd	16ff
4B	4g	16dd	16ff
.	.	16ee	16gg
.	.	16ff	16aa
.	.	16ee	16gg
4r	4r	8dd	8ff
.	.	16r	16r
.	.	16dd	16ff
=50	=50	=50	=50
[2B	[2g	[4dd	[4ff
.	.	16dd]	16ff]
.	.	16ee	16gg
.	.	16ff	16aa
.	.	16ee	16gg
4B]	4g]	4dd	4ff
4r	4r	4r	4r
=51	=51	=51	=51
1r	8cc	16ee	2cc
.	.	16gg	.
.	8r	16ee	.
.	.	16dd	.
.	8a	16cc	.
.	.	16ee	.
.	8r	16cc	.
.	.	16b	.
.	8f	16a	[2aa
.	.	16cc	.
.	8r	16a	.
.	.	16g	.
.	8d	16f	.
.	.	16a	.
.	8r	16f	.
.	.	16e	.
=52	=52	=52	=52
1r	1B	1d 1G	16aa]
.	.	.	16gg
.	.	.	16bb
.	.	.	16aa
.	.	.	16ccc
.	.	.	16bb
.	.	.	16ddd
.	.	.	16ccc
.	.	.	16eee
.	.	.	16ddd
.	.	.	16ccc
.	.	.	16bb
.	.	.	16aa
.	.	.	16gg
.	.	.	16aa
.	.	.	16ff
=53	=53	=53	=53
8c	2c	4c	16ee
.	.	.	16gg
8r	.	.	16ee
.	.	.	16dd
8A	.	2.r	16cc
.	.	.	16ee
8r	.	.	16cc
.	.	.	16b
8F	[2a	.	16a
.	.	.	16cc
8r	.	.	16a
.	.	.	16g
8D	.	.	16f
.	.	.	16a
8r	.	.	16f
.	.	.	16e
=54	=54	=54	=54
1BB	16a]	1r	1d 1G
.	16g	.	.
.	16b	.	.
.	16a	.	.
.	16cc	.	.
.	16b	.	.
.	16dd	.	.
.	16cc	.	.
.	16ee	.	.
.	16dd	.	.
.	16cc	.	.
.	16b	.	.
.	16a	.	.
.	16g	.	.
.	16a	.	.
.	16f	.	.
=55	=55	=55	=55
8C	16e	[1g	8c
.	16f	.	.
8GG	16f#	.	8r
.	16g	.	.
8D	16g#	.	4f
.	16a	.	.
8GG	16b-	.	.
.	16b	.	.
8E	16dd	.	4e
.	16cc	.	.
8GG	16b	.	.
.	16a	.	.
8BB	16g	.	4d
.	16g#	.	.
8GG	16a	.	.
.	16f	.	.
=56	=56	=56	=56
8C	16e	1g]	8c
.	16f	.	.
8GG	16f#	.	8r
.	16g	.	.
8D	16g#	.	4f
.	16a	.	.
8GG	16b-	.	.
.	16b	.	.
8E	16dd	.	4e
.	16cc	.	.
8GG	16b	.	.
.	16a	.	.
8BB	16g	.	4d
.	16g#	.	.
8GG	16a	.	.
.	16f	.	.
=57	=57	=57	=57
4C	4e	16c	4c
.	.	16g	.
.	.	16cc	.
.	.	16ee	.
4.r	4.r	16gg	4.r
.	.	16aa	.
.	.	16ff	.
.	.	16gg	.
.	.	16ee	.
.	.	16ff	.
8E	8G	16dd	8c
.	.	16ee	.
8E	8G	16cc	8c
.	.	16dd	.
8E	8G	16b-	8c#
.	.	16cc	.
=58	=58	=58	=58
4F	4A	4a	16d
.	.	.	16a
.	.	.	16dd
.	.	.	16ff
2.r	4.r	4.r	16aa
.	.	.	16bb-
.	.	.	16gg
.	.	.	16aa
.	.	.	16ff
.	.	.	16gg
.	8F	8a 8d	16ee
.	.	.	16ff
.	8F	8a 8d	16dd
.	.	.	16ee
.	8F#	8a 8d	16cc
.	.	.	16dd
=59	=59	=59	=59
16GG	4G	4g	4b
16D	.	.	.
16G	.	.	.
16B	.	.	.
16d	4r	4r	4r
16e	.	.	.
16c	.	.	.
16d	.	.	.
16B	[2g	4.dd	4.bb
16c	.	.	.
16A	.	.	.
16B	.	.	.
16G	.	.	.
16A	.	.	.
16F	.	16cc	16aa
16G	.	16dd	16bb
=60	=60	=60	=60
4E	4g]	4ee	4ccc
4r	4r	4r	4r
4F#	4cc	4ee-	4aa
4r	4r	4r	4r
=61	=61	=61	=61
4G	1r	4r	4r
2.r	.	4ee	4gg
.	.	4ee-	4ff#
.	.	4dd	4ff
=62	=62	=62	=62
1r	1r	4cc#	4ee
.	.	4dd	2ff
.	.	4b	.
.	.	4f	4b
=63	=63	=63	=63
2cc	8r	4e	4cc
.	8g	.	.
.	8e	2.r	2.r
.	8c	.	.
2ee	8G	.	.
.	8e	.	.
.	8c	.	.
.	8G	.	.
=64	=64	=64	=64
[2gg	8E	1r	1r
.	8c	.	.
.	8G	.	.
.	8E	.	.
8gg]	8C	.	.
16aa	8E	.	.
16gg	.	.	.
16ff	8A	.	.
16ee	.	.	.
16dd	8G	.	.
16cc	.	.	.
=65	=65	=65	=65
8dd	8F	1r	1r
8r	8D	.	.
8dd	8E	.	.
8r	8F	.	.
8b	8G	.	.
8r	8F	.	.
8b	8E	.	.
8r	8D	.	.
=66	=66	=66	=66
4cc	4C	8r	2cc
.	.	8gg	.
2.r	2.r	8ee	.
.	.	8cc	.
.	.	8g	2ee
.	.	8ee	.
.	.	8cc	.
.	.	8g	.
=67	=67	=67	=67
1AA	4c#	8e	[2gg
.	.	8b-	.
.	4B-	8g	.
.	.	8e	.
.	4A	8c#	8gg]
.	.	8e	16aa
.	.	.	16gg
.	4G	8A	16ff
.	.	.	16ee
.	.	8e	16dd
.	.	.	16cc#
=68	=68	=68	=68
8DD	8F	8d	8aa
8r	8A	8r	8r
8DD	8F	8d	8aa
8r	8A	8r	8r
8GG	8D	8f	8b
8r	8G	8r	8r
8GG	8D	8f	8b
8r	8G	8r	8r
=69	=69	=69	=69
[1C	8C	8e	2cc
.	8c	8cc	.
.	8d	8dd	.
.	8c	8cc	.
.	8B	8b	2ee
.	8B-	8b-	.
.	8c	8cc	.
.	8B-	8b-	.
=70	=70	=70	=70
1C]	8A	8a	[2ff
.	8A-	8a-	.
.	8B-	8b-	.
.	8A-	8a-	.
.	8G	8g	8ff]
.	8F	8f	16gg
.	.	.	16ff
.	8G	8g	16ee
.	.	.	16dd
.	8F	8f	16cc
.	.	.	16b
=71	=71	=71	=71
[1CC	8E	8e	2cc
.	8c	8cc	.
.	8d	8dd	.
.	8c	8cc	.
.	8B	8b	2ee
.	8B-	8b-	.
.	8c	8cc	.
.	8B-	8b-	.
=72	=72	=72	=72
1CC]	8A	8a	[2ff
.	8A-	8a-	.
.	8B-	8b-	.
.	8A-	8a-	.
.	8G	8g	16ff]
.	.	.	16gg
.	8F	8f	16aa
.	.	.	16ff
.	8G	8g	16ee
.	.	.	16dd
.	8F	8f	16cc
.	.	.	16b
=73	=73	=73	=73
2c	2c	2cc	2cc
2c#	2c#	2cc#	2cc#
=74	=74	=74	=74
[2d	[2d	[2dd	[2dd
8d]	8d]	8dd]	8dd]
16c	16c	16cc	16cc
16B-	16B-	16b-	16b-
16A	16A	16a	16a
16G	16G	16g	16g
16F	16F	16f	16f
16E	16E	16e	16e
=75	=75	=75	=75
[2B-	[2b-	[2b-	[2b-
8B-]	8b-]	8b-]	8b-]
16A	16a	16a	16a
16G	16g	16g	16g
16F	16f	16f	16f
16E	16e	16e	16e
16D	16d	16d	16d
16C#	16c#	16c#	16c#
=76	=76	=76	=76
4G	4g	4g	4g
4BB-	4B-	4B-	4B-
2r	2r	2r	2r
=77	=77	=77	=77
4G	8e-	8g	2r
.	8e-	8g	.
4BB-	8e-	8g	.
.	8e-	8g	.
2r	8e-	8g	8gg
.	8e-	8g	8aa-
.	8e-	8g	8aa
.	8e-	8g	8bb-
=78	=78	=78	=78
4A-	8d	8f	2r
.	8d	8f	.
4BB-	8d	8f	.
.	8d	8f	.
2r	8d	8f	8dd
.	8d	8f	8ee-
.	8d	8f	8ee
.	8d	8f	8ff
=79	=79	=79	=79
4F	8d	8a-	2r
.	8d	8a-	.
4BB-	8d	8a-	.
.	8d	8a-	.
2r	8d	8a-	8ff
.	8d	8a-	8ff#
.	8d	8a-	8gg
.	8d	8a-	8aa-
=80	=80	=80	=80
4E-	8e-	8g	2r
.	8e-	8g	.
4BB-	8e-	8g	.
.	8e-	8g	.
2r	8e-	8g	8aa
.	8e-	8g	8bb-
.	8e-	8g	8ccc
.	8e-	8g	8bb-
=81	=81	=81	=81
4G	8e-	8g	2r
.	8e-	8g	.
4BB-	8e-	8g	.
.	8e-	8g	.
2r	8e-	8g	8gg
.	8e-	8g	8aa-
.	8e-	8g	8aa
.	8e-	8g	8bb-
=82	=82	=82	=82
4A-	8d	8f	2r
.	8d	8f	.
4BB	8d	8f	.
.	8d	8f	.
2r	8d	8f	8dd
.	8d	8f	8ee-
.	8d	8f	8ee
.	8d	8f	8ff
=83	=83	=83	=83
2r	8f	8g	4ddd
.	8f	8g	.
.	8f	8g	4ff
.	8f	8g	.
8B	8f	8g	2r
8c	8f	8g	.
8c#	8f	8g	.
8d	8f	8g	.
=84	=84	=84	=84
2r	8e-	8g	4ddd
.	8e-	8g	.
.	8e-	8g	4ee-
.	8e-	8g	.
8c	8e-	8g	2r
8c#	8e-	8g	.
8d	8e-	8g	.
8e-	8e-	8g	.
=85	=85	=85	=85
2r	8e-	8f#	4ccc
.	8e-	8a	.
.	8e-	8a	4ee-
.	8e-	8a	.
8F#	8e-	8a	2r
8G	8e-	8a	.
8G#	8e-	8a	.
8A	8e-	8a	.
=86	=86	=86	=86
2r	8d	8a	4ccc
.	8d	8cc	.
.	8d	8b-	4dd
.	8d	8b-	.
8G	8d	8b-	2r
8G#	8d	8b-	.
8A	8d	8b-	.
8B-	8d	8b-	.
=87	=87	=87	=87
2r	8c#	8b-	4bb-
.	8e	8b-	.
.	8g	8b-	4cc#
.	8g	8b-	.
8E	8g	8b-	2r
8F	8g	8b-	.
8F#	8g	8b-	.
8G	8g	8b-	.
=88	=88	=88	=88
2r	8f	8d	4aa
.	8f	8f	.
.	8f	8a	4dd
.	8f	8a	.
8F	8f	8a	2r
8G	8f	8a	.
8G#	8f	8a	.
8A	8f	8a	.
=89	=89	=89	=89
2r	8f	8a	4ddd
.	8f	8g#	.
.	8d	8f	4gg#
.	8d	8f	.
8AA	8d	8f	2r
8BB-	8d	8f	.
8D	8G#	8d	.
8BB-	8G#	8d	.
=90	=90	=90	=90
4AA	4A	8e 8c#	2r
.	.	8e 8c#	.
4A	4r	8e 8c#	.
.	.	8e 8c#	.
2r	8b-	8e 8c#	4ccc#
.	8a	8e 8c#	.
.	8g#	8e 8c#	4a
.	8a	8e 8c#	.
=91	=91	=91	=91
4AA	2r	8f 8d	2r
.	.	8f 8d	.
4A	.	8f 8d	.
.	.	8f 8d	.
2r	8g#	8f 8d	4ddd
.	8a	8f 8d	.
.	8f	8f 8d	4a
.	8d	8f 8d	.
=92	=92	=92	=92
4AA	2r	8e 8c#	2r
.	.	8e 8c#	.
4A	.	8e 8c#	.
.	.	8e 8c#	.
2r	8b-	8e 8c#	4ccc#
.	8a	8e 8c#	.
.	8g#	8e 8c#	4a
.	8a	8e 8c#	.
=93	=93	=93	=93
4AA	2r	8f 8d	2r
.	.	8f 8d	.
4A	.	8f 8d	.
.	.	8f 8d	.
2r	8g#	8f 8d	4ddd
.	8a	8f 8d	.
.	8f	8f 8d	4a
.	8d	8f 8d	.
=94	=94	=94	=94
1r	4A	4e 4c#	8r
.	.	.	4aa
.	2.r	2.r	.
.	.	.	16bb-
.	.	.	16aa
.	.	.	16gg
.	.	.	16ff
.	.	.	16ee
.	.	.	16dd
.	.	.	16cc#
.	.	.	16b-
.	.	.	16a
.	.	.	16g
=95	=95	=95	=95
1r	8r	8r	8f
.	4a	8dd	8ff
.	.	8cc#	8ee
.	16b-	8dd	8dd
.	16a	.	.
.	16g	4ee	4gg
.	16f	.	.
.	16e	.	.
.	16d	.	.
.	16c#	8r	8r
.	16B-	.	.
.	16A	8c#	8a
.	16G	.	.
=96	=96	=96	=96
1r	8F#	8d	8a
.	8G	4dd	8b-
.	8F#	.	8a
.	8G	16ee-	8g
.	.	16dd	.
.	4A	16cc	4f#
.	.	16b-	.
.	.	16a	.
.	.	16g	.
.	8r	16f#	8r
.	.	16e-	.
.	8D	16d	8f#
.	.	16c	.
=97	=97	=97	=97
8r	8G	8B	8g
4G	8g	8c	8ee
.	8g	8B	8dd
16A	8g	8e	8cc
16G	.	.	.
16F	4g	4d	4ff
16E	.	.	.
16D	.	.	.
16C	.	.	.
16BB	8r	8r	8r
16AA	.	.	.
16GG	8g	8d	8b
16FF	.	.	.
=98	=98	=98	=98
8EE	8g	8c	8cc
8FF	8a	8c	4ccc
8EE	8g	8B-	.
8FF	8f	8A	16ddd
.	.	.	16ccc
4GG	4e	4B-	16bb-
.	.	.	16aa
.	.	.	16gg
.	.	.	16ff
8r	8r	8r	16ee
.	.	.	16dd
8CC	8e	8g	16cc
.	.	.	16b-
=99	=99	=99	=99
4FF	8f	8f	8a
.	4f	8B-	8dd
8r	.	8c	8cc
8BB-	16g	8d	8b-
.	16f	.	.
4C	16e-	4A	4ee-
.	16d	.	.
.	16c	.	.
.	16B-	.	.
8r	16A	8r	8r
.	16G	.	.
8FF	16F	8A	8c
.	16E-	.	.
=100	=100	=100	=100
4.BB-	8D	8B-	8d
.	8F#	8r	4d
.	4.G	2d	.
8BB	.	.	16c
.	.	.	16d
4.C	.	.	16e
.	.	.	16f
.	8E	.	16g
.	.	.	16a
.	[4A	4c	16b-
.	.	.	16cc
8AA	.	.	16dd
.	.	.	16ee
=101	=101	=101	=101
4.D	8A]	4r	8ff
.	8A	.	4f
.	4.B-	2f	.
8D	.	.	16e
.	.	.	16f
4.E	.	.	16g
.	.	.	16a
.	8G	.	16b-
.	.	.	16cc
.	[4c	4e	16dd
.	.	.	16ee
8C	.	.	16ff
.	.	.	16gg
=102	=102	=102	=102
4.F	8c]	4r	8aa
.	8c#	.	4a
.	4.d	2a	.
8D	.	.	16g
.	.	.	16a
2G	.	.	16b
.	.	.	16cc
.	8f	.	16dd
.	.	.	16ee
.	8e	8g	16ff
.	.	.	16gg
.	8d	8f	16aa
.	.	.	16bb
=103	=103	=103	=103
8C	8c	8e	8ccc
4C	4c	4c	4c
16D	16d	16d	16d
16C	16c	16c	16c
16BB	16B	16B	16B
16C	16c	16c	16c
16D	16d	16d	16d
16E	16e	16e	16e
16F	16f	16f	16f
16G	16g	16g	16g
16A	16a	16a	16a
16B	16b	16b	16b
=104	=104	=104	=104
4c	4cc	4cc	8cc
.	.	.	4cc
2.r	2.r	2.r	.
.	.	.	16dd
.	.	.	16cc
.	.	.	16b
.	.	.	16cc
.	.	.	16dd
.	.	.	16ee
.	.	.	16ff
.	.	.	16gg
.	.	.	16aa
.	.	.	16bb
=105	=105	=105	=105
8r	8r	8r	4ccc
8c	8e	8g	.
8c	8e	8g	8r
2r	2r	2r	16dd
.	.	.	16cc
.	.	.	16b
.	.	.	16cc
.	.	.	16dd
.	.	.	16ee
.	.	.	16ff
.	.	.	16gg
8r	8r	8r	16aa
.	.	.	16bb
=106	=106	=106	=106
8r	8r	8r	4ccc
8c	8e	8g	.
8c	8e	8g	8r
2r	2r	2r	16dd
.	.	.	16cc
.	.	.	16b
.	.	.	16cc
.	.	.	16dd
.	.	.	16ee
.	.	.	16ff
.	.	.	16ff#
8r	8r	8r	16gg
.	.	.	16aa
=107	=107	=107	=107
8r	8r	8r	4bb-
8C	8G	8e	.
8C	8G	8e	8r
2r	2r	2r	16dd
.	.	.	16cc
.	.	.	16b
.	.	.	16cc
.	.	.	16dd
.	.	.	16ee
.	.	.	16ff
.	.	.	16ff#
8r	8r	8r	16gg
.	.	.	16aa
=108	=108	=108	=108
8r	8r	8r	4bb-
8C	8G	8e	.
8C	8G	8e	16r
.	.	.	16ff#
4r	4r	4r	16gg
.	.	.	16aa
.	.	.	4bb-
8C	8G	8e	.
8C	8G	8e	16r
.	.	.	16ff#
8r	8r	8r	16gg
.	.	.	16aa
=109	=109	=109	=109
8r	8r	8r	4bb-
8C	8G	8e	.
8C	8G	8e	8r
2r	2r	2r	16bb-
.	.	.	16aa
.	.	.	16gg
.	.	.	16aa
.	.	.	16ff
.	.	.	16gg
.	.	.	16ee
.	.	.	16ff
8r	8r	8r	16dd
.	.	.	16ee
=110	=110	=110	=110
8r	8r	8r	4cc
8e	8g	8b-	.
8e	8g	8b-	8r
4r	4r	4r	16ee
.	.	.	16dd
.	.	.	4cc
8e	8g	8b-	.
8e	8g	8b-	8r
8r	8r	8r	16ee
.	.	.	16dd
=111	=111	=111	=111
8r	8r	8r	4cc
8e	8g	8b-	.
8e	8g	8b-	8r
2r	2r	2r	16ee
.	.	.	16dd
.	.	.	16cc
.	.	.	16dd
.	.	.	16b-
.	.	.	16cc
.	.	.	16a
.	.	.	16b-
8r	8r	8r	16g
.	.	.	16a
=112	=112	=112	=112
2F	2f	2f	2f
2A	2a	2a	2a
=113	=113	=113	=113
[2c	[2cc	[2cc	[2cc
8c]	8cc]	8cc]	8cc]
16d	16dd	16dd	16dd
16c	16cc	16cc	16cc
16B-	16b-	16b-	16b-
16A	16a	16a	16a
16G	16g	16g	16g
16F	16f	16f	16f
=114	=114	=114	=114
16E	16e	16e	16e
16D	16d	16d	16d
16C	16c	16c	16c
16BB-	16B-	16B-	16B-
8AA	8A	8A	8A
2r	2r	2r	2r
8r	8r	8r	8r
=115	=115	=115	=115
1r	1r	1r	2g
.	.	.	2b-
=116	=116	=116	=116
1BB-	1G	2G	[2cc#
.	.	4B-	8cc#]
.	.	.	16ee
.	.	.	16dd
.	.	4d	16cc
.	.	.	16b-
.	.	.	16a
.	.	.	16g
=117	=117	=117	=117
8C	8G	8B-	16f
.	.	.	16e
8r	8r	8r	16g
.	.	.	16e
8FF	8F	8A	8f
2r	2r	2r	2r
8r	8r	8r	8r
=118	=118	=118	=118
1r	1r	1r	2f
.	.	.	2a
=119	=119	=119	=119
4FF	8r	8r	[2cc
.	8A	8e-	.
2.r	8A	8e-	.
.	8A	8e-	.
.	8A	8e-	8cc]
.	8A	8e-	16ff
.	.	.	16ee-
.	8A	8e-	16dd
.	.	.	16cc
.	8c	8e-	16b-
.	.	.	16a
=120	=120	=120	=120
4FF	8r	8r	8cc
.	8B-	8d	8b-
2.r	8B-	8d	4.b-
.	8B-	8d	.
.	8B-	8d	.
.	8B-	8d	16aa
.	.	.	16gg
.	8B-	8e	16ff
.	.	.	16ee
.	8B-	8e	16dd
.	.	.	16cc
=121	=121	=121	=121
4FF	8r	8r	8cc
.	8A	8f	8ff
2.r	8A	8f	[4ff
.	8A	8f	.
.	8A	8f	16ff]
.	.	.	16gg
.	8A	8f	16ff
.	.	.	16ee-
.	8A	8e-	16dd
.	.	.	16cc
.	8c	8e-	16b-
.	.	.	16a
=122	=122	=122	=122
4FF	8r	8r	8cc
.	8B-	8d	8b-
2.r	8B-	8d	[4b-
.	8B-	8d	.
.	8B-	8d	16b-]
.	.	.	16dd
.	8B-	8d	16cc
.	.	.	16b-
.	8B-	8d	16a
.	.	.	16g
.	8G	8B-	16f
.	.	.	16e
=123	=123	=123	=123
8r	8F	8A	4f
4c	8f	8a	.
.	8e	8g	4.r
16d	8f	8f	.
16c	.	.	.
16B-	4g	4b-	.
16A	.	.	.
16G	.	.	8cc
16F	.	.	.
16E	8r	8r	8bb-
16D	.	.	.
16C	8c	8G	8ee
16BB-	.	.	.
=124	=124	=124	=124
8AA	8c	8A	4ff
4c	8f	8a	.
.	8e	8g	4.r
16d	8f	8f	.
16c	.	.	.
16B-	4g	4b-	.
16A	.	.	.
16G	.	.	8cc
16F	.	.	.
16E	8r	8r	8bb-
16D	.	.	.
16C	8c	8G	8ee
16BB-	.	.	.
=125	=125	=125	=125
2AA	2c	2A	16ff
.	.	.	16aa
.	.	.	16ccc
.	.	.	16bb-
.	.	.	16aa
.	.	.	16gg
.	.	.	16ff
.	.	.	16ee
4..BB-	4..d	4..G	16dd
.	.	.	16cc
.	.	.	16b-
.	.	.	16a
.	.	.	16g
.	.	.	16f
.	.	.	16e
16BB	16F	16G	16d
=126	=126	=126	=126
4C	4E	4G	4c
4CC	4c 4C	4cc 4e 4G	4cc 4e 4G
2r	2r	2r	2r
=127	=127	=127	=127
8r	2f	8r	1r
8F	.	8A-	.
8F	.	8A-	.
8F	.	8A-	.
8F	2a-	8A-	.
8F	.	8A-	.
8F	.	8A-	.
8F	.	8A-	.
=128	=128	=128	=128
8r	[2cc	8r	1r
8F	.	8A-	.
8F	.	8A-	.
8F	.	8A-	.
8F	8cc]	8A-	.
8F	16dd-	8A-	.
.	16cc	.	.
8F	16b-	8A-	.
.	16a-	.	.
8F	16g	8A-	.
.	16f	.	.
=129	=129	=129	=129
8r	16f	8r	2r
.	16e-	.	.
8G	16g	8B-	.
.	16f	.	.
8G	8e-	8B-	.
8G	2r	8B-	.
8G	.	8B-	16ff
.	.	.	16ee-
8G	.	8B-	16gg
.	.	.	16ff
8G	.	8B-	8ee-
8G	8r	8B-	8r
=130	=130	=130	=130
8r	2e-	8r	1r
8G	.	8B-	.
8G	.	8B-	.
8G	.	8B-	.
8G	4g	8B-	.
8G	.	8B-	.
8G	4b-	8B-	.
8G	.	8B-	.
=131	=131	=131	=131
8r	[2dd-	8r	1r
8E-	.	8G	.
8E-	.	8G	.
8E-	.	8G	.
8E-	16dd-]	8G	.
.	16cc	.	.
8E-	16b-	8G	.
.	16a-	.	.
8E-	16g	8G	.
.	16f	.	.
8E-	16e-	8G	.
.	16d-	.	.
=132	=132	=132	=132
8r	16d-	8r	2r
.	16c	.	.
8A-	16e-	8e-	.
.	16d-	.	.
8A-	8c	8e-	.
8A-	2r	8e-	.
8r	.	8r	16aa-
.	.	.	16gg
8d-	.	8e-	16bb-
.	.	.	16aa-
8d-	.	8e-	8gg
8d-	8r	8e-	8r
=133	=133	=133	=133
8r	16b-	8r	2r
.	16a-	.	.
8c	16cc	8e-	.
.	16b-	.	.
8c	8a-	8e-	.
8c	2r	8e-	.
8r	.	8r	16ccc
.	.	.	16bb-
8G	.	8e-	16ddd-
.	.	.	16ccc
8G	.	8e-	8bb-
8G	8r	8e-	8r
=134	=134	=134	=134
8r	16dd-	8r	2r
.	16cc	.	.
8A-	16ee-	8e-	.
.	16dd-	.	.
8A-	8cc	8e-	.
8A-	2r	8e-	.
8r	.	8r	16ff
.	.	.	16ee
8B-	.	8c	16gg
.	.	.	16ff
8B-	.	8c	8ee
8B-	8r	8c	8r
=135	=135	=135	=135
8r	16g	8r	2r
.	16f	.	.
8A-	16a-	8c	.
.	16g	.	.
8A-	8f	8c	.
8A-	2r	8c	.
8r	.	8r	16aa-
.	.	.	16gg
8E	.	8c	16bb-
.	.	.	16aa-
8E	.	8c	8gg
8E	8r	8c	8r
=136	=136	=136	=136
8r	16b-	8r	2r
.	16a-	.	.
8F	16cc	8c	.
.	16b-	.	.
8F	8a-	8c	.
8F	4r	8c	.
8r	.	2r	16cc
.	.	.	16b
8d	8f	.	16dd
.	.	.	16cc
8d	8f	.	8b
8d	8f	.	8r
=137	=137	=137	=137
4c	8r	16dd	2r
.	.	16cc	.
.	8e 8G	16ee	.
.	.	16dd	.
4r	8e 8G	8cc	.
.	8e 8G	2r	.
4G	8r	.	16ccc
.	.	.	16bb
.	8f 8G	.	16ddd
.	.	.	16ccc
4r	8f 8G	.	8bb
.	8f 8G	8r	8r
=138	=138	=138	=138
4C	8r	16dd	2r
.	.	16cc	.
.	8e 8G	16ee	.
.	.	16dd	.
4r	8e 8G	8cc	.
.	8e 8G	2r	.
4GG	8r	.	16ccc
.	.	.	16bb
.	8f 8G	.	16ddd
.	.	.	16ccc
4r	8f 8G	.	8bb
.	8f 8G	8r	8r
=139	=139	=139	=139
4C	8e 8G	2..r	16ccc
.	.	.	16bb
.	8r	.	16ddd
.	.	.	16ccc
2.r	16cc	.	16eee
.	16b	.	16ddd
.	16dd	.	16fff
.	16cc	.	16eee
.	16ee	.	8ggg
.	16dd	.	.
.	16ff	.	8fff
.	16ee	.	.
.	8gg	.	8eee
.	8ff	8aa	8ddd
=140	=140	=140	=140
1r	8ee	8gg	8ccc
.	8dd	8ff	8bb-
.	8cc	8ee	8aa
.	8b-	8dd	8gg
.	8a	8cc	8ff
.	8g	8b-	8ee
.	8f	8a	8dd
.	8e	8g	8cc
=141	=141	=141	=141
2.r	4d	2.f	4b
.	4d-	.	4b-
.	4c	.	4a
4CC	4B-	4e	4g
=142	=142	=142	=142
2FF	8A	4f	4f
.	8F	.	.
.	8A	2.r	2.r
.	8c	.	.
2r	8f	.	.
.	8a	.	.
.	8b-	.	.
.	8b	.	.
=143	=143	=143	=143
1F	8dd	8r	8r
.	8cc	8c	4a
.	4.cc	8f	.
.	.	8c	4a
.	.	8f	.
.	16dd	8c	4a
.	16cc	.	.
.	16b-	8f	.
.	16a	.	.
.	16g	8c	8a
.	16f	.	.
=144	=144	=144	=144
[1C	8e	8B-	8g
.	8r	8c	8r
.	8f	8A	8f
.	8r	8c	8r
.	8g	8B-	8e
.	8r	8c	8r
.	8a	8A	8f
.	8r	8f	8r
=145	=145	=145	=145
4C]	4cc	4c	4a
4.r	8.b-	2.r	8.g
.	16a	.	16f
.	4g	.	4e
8c	.	.	.
8B	4r	.	4r
8B-	.	.	.
=146	=146	=146	=146
8A	2f	4r	1r
8A	.	.	.
8A	.	4c#	.
8A	.	.	.
8B-	4f	4d	.
8B-	.	.	.
8A	4f	4c#	.
8A	.	.	.
=147	=147	=147	=147
8B-	8f	2.d	1r
8B-	8dd	.	.
8B-	2dd	.	.
8B-	.	.	.
8B-	.	.	.
8B-	.	.	.
8B-	16cc	4e	.
.	16b-	.	.
8B-	16a	.	.
.	16g	.	.
=148	=148	=148	=148
8A	4.f	4f	1r
8A	.	.	.
8d	.	2f	.
8d	8a	.	.
8B-	4.g	.	.
8B-	.	.	.
8c	.	4e	.
8c	8cc	.	.
=149	=149	=149	=149
2c	2b-	2g	8r
.	.	.	8cc
.	.	.	8dd
.	.	.	8ee
4F	4a	4f	8ff
.	.	.	8ff#
4r	4r	4r	8gg
.	.	.	8gg#
=150	=150	=150	=150
4FF	8r	8r	8aa
.	8e	8g#	8ee
4r	8f	8a	8ff
.	8f	8a	8aa
4FF	8r	8r	8bb-
.	8f#	8a	8ff#
4r	8g	8b-	8gg
.	8g	8b-	8bb-
=151	=151	=151	=151
8FF	8r	8r	8ddd
8r	8f	8a	8ccc
8F	8a	8cc	4.ccc
8r	8f	8a	.
8FF	8a	8cc	.
8r	8f	8a	16ddd
.	.	.	16ccc
8F	8a	8cc	16bb-
.	.	.	16aa
8r	8f	8a	16gg
.	.	.	16ff
=152	=152	=152	=152
[1C	4g	8b-	8ee
.	.	8cc	8ee
.	4f	8a	8ff
.	.	8cc	8ff
.	4e	8g	8gg
.	.	8cc	8gg
.	4f	8f	8aa
.	.	8cc	8aa
=153	=153	=153	=153
4C]	4c	8a	8ccc
.	.	8g#	8bb
2.r	4.r	8g	8bb-
.	.	8f	8aa
.	.	4e	4gg
.	8cc	.	.
.	8b	4r	4r
.	8b-	.	.
=154	=154	=154	=154
1r	8a	4r	2ff
.	8a	.	.
.	8a	4cc#	.
.	8a	.	.
.	8b-	4dd	4ff
.	8b-	.	.
.	8a	4cc#	4ff
.	8a	.	.
=155	=155	=155	=155
1r	8b-	2.dd	8ff
.	8b-	.	8ddd
.	8b-	.	2ddd
.	8b-	.	.
.	8b-	.	.
.	8b-	.	.
.	8b-	4ee	16ccc
.	.	.	16bb-
.	8b-	.	16aa
.	.	.	16gg
=156	=156	=156	=156
1r	8a	4ff	4.ff
.	8a	.	.
.	8dd	2ff	.
.	8dd	.	8aa
.	8b-	.	4.gg
.	8b-	.	.
.	8cc	4ee	.
.	8cc	.	8bb-
=157	=157	=157	=157
4r	4f	4ff	8aa
.	.	.	8fff
4aa	8r	4ff	4fff
.	4cc#	.	.
4bb-	.	4ff	4fff
.	4dd	.	.
4aa	.	4ff	4fff
.	8cc#	.	.
=158	=158	=158	=158
4bb-	4dd	8ff	8fff
.	.	8dd	8ddd
4ff#	8.cc	8r	8r
.	.	4dd	4ddd
.	16a	.	.
4gg	8.b-	.	.
.	.	4dd	4ddd
.	16g	.	.
4ff#	8.cc	.	.
.	.	8dd	8ddd
.	16a	.	.
=159	=159	=159	=159
8gg	4b-	8dd	8ddd
8gg	.	8b-	8bb-
8ff	4dd-	2gg	8r
8ff	.	.	4bb-
8ee	4cc	.	.
8ee	.	.	4bb-
8ff	4dd-	4gg	.
8ff	.	.	8bb-
=160	=160	=160	=160
4ee	4cc	16gg	16bb-
.	.	16aa	16ccc
.	.	16bb-	16ddd
.	.	16aa	16ccc
4r	4r	8gg	8bb-
.	.	16r	16r
.	.	16gg	16bb-
4ee	4cc	16gg	16bb-
.	.	16aa	16ccc
.	.	16bb-	16ddd
.	.	16aa	16ccc
4r	4r	8gg	8bb-
.	.	16r	16r
.	.	16gg	16bb-
=161	=161	=161	=161
[2ee	[2cc	[4gg	[4bb-
.	.	16gg]	16bb-]
.	.	16aa	16ccc
.	.	16bb-	16ddd
.	.	16aa	16ccc
4ee]	4cc]	4gg	4bb-
4r	4r	4r	4r
=162	=162	=162	=162
1r	8ff	2f	16aa
.	.	.	16ccc
.	8r	.	16aa
.	.	.	16gg
.	8dd	.	16ff
.	.	.	16aa
.	8r	.	16ff
.	.	.	16ee
.	8b-	[2dd	16dd
.	.	.	16ff
.	8r	.	16dd
.	.	.	16cc
.	8g	.	16b-
.	.	.	16dd
.	8r	.	16b-
.	.	.	16a
=163	=163	=163	=163
1r	1e	16dd]	1g
.	.	16cc	.
.	.	16ee	.
.	.	16dd	.
.	.	16ff	.
.	.	16ee	.
.	.	16gg	.
.	.	16ff	.
.	.	16aa	.
.	.	16gg	.
.	.	16ff	.
.	.	16ee	.
.	.	16dd	.
.	.	16cc	.
.	.	16dd	.
.	.	16b-	.
=164	=164	=164	=164
2F	8f	16a	4f
.	.	16cc	.
.	8r	16a	.
.	.	16g	.
.	8d	16f	2.r
.	.	16a	.
.	8r	16f	.
.	.	16e	.
[2d	8B-	16d	.
.	.	16f	.
.	8r	16d	.
.	.	16c	.
.	8G	16B-	.
.	.	16d	.
.	8r	16B-	.
.	.	16A	.
=165	=165	=165	=165
16d]	1E	1G	1r
16c	.	.	.
16e	.	.	.
16d	.	.	.
16f	.	.	.
16e	.	.	.
16g	.	.	.
16f	.	.	.
16a	.	.	.
16g	.	.	.
16f	.	.	.
16e	.	.	.
16d	.	.	.
16c	.	.	.
16d	.	.	.
16B-	.	.	.
=166	=166	=166	=166
16A	8F	8A	[1c
16B-	.	.	.
16B	8C	8r	.
16c	.	.	.
16c#	8G	4B-	.
16d	.	.	.
16e-	8C	.	.
16e	.	.	.
16g	8A	4A	.
16f	.	.	.
16e	8C	.	.
16d	.	.	.
16c	8E	4G	.
16c#	.	.	.
16d	8C	.	.
16B-	.	.	.
=167	=167	=167	=167
16A	8F	8A	1c]
16B-	.	.	.
16B	8C	8r	.
16c	.	.	.
16c#	8G	4B-	.
16d	.	.	.
16e-	8C	.	.
16e	.	.	.
16g	8A	4A	.
16f	.	.	.
16e	8C	.	.
16d	.	.	.
16c	8E	4G	.
16c#	.	.	.
16d	8C	.	.
16B-	.	.	.
=168	=168	=168	=168
4A	4F	16A	4c
.	.	16c	.
.	.	16f	.
.	.	16a	.
4.r	4.r	16cc	4.r
.	.	16dd	.
.	.	16b-	.
.	.	16cc	.
.	.	16a	.
.	.	16b-	.
8AA	8F	16g	8c
.	.	16a	.
8AA	8F	16f	8c
.	.	16g	.
8AA	8F#	16e-	8c
.	.	16f	.
=169	=169	=169	=169
4BB-	4G	4d	16B-
.	.	.	16d
.	.	.	16g
.	.	.	16b-
4.r	2.r	4.r	16dd
.	.	.	16ee-
.	.	.	16cc
.	.	.	16dd
.	.	.	16b-
.	.	.	16cc
8BB-	.	8d 8G	16a
.	.	.	16b-
8BB-	.	8d 8G	16g
.	.	.	16a
8BB	.	8d 8G	16f
.	.	.	16g
=170	=170	=170	=170
4C	16C	4c	4e
.	16G	.	.
.	16c	.	.
.	16e	.	.
2.r	16g	4r	4r
.	16a	.	.
.	16f	.	.
.	16g	.	.
.	16e	4.g	4.ee
.	16f	.	.
.	16d	.	.
.	16e	.	.
.	16c	.	.
.	16d	.	.
.	16B-	16f	16dd
.	16c	16g	16ee
=171	=171	=171	=171
2r	4A	4a	4ff
.	4r	4r	4r
4B	4a-	4ff	4ddd
4r	4r	4r	4r
=172	=172	=172	=172
4c	1r	4r	4r
2.r	.	4aa	4ccc
.	.	4aa-	4bb
.	.	4gg	4bb-
=173	=173	=173	=173
1r	1r	4ff#	4aa
.	.	4gg	2bb-
.	.	4ee	.
.	.	4b-	4ee
=174	=174	=174	=174
2ff	8r	4a	4ff
.	8cc	.	.
.	8a	2.r	2.r
.	8f	.	.
2aa	8c	.	.
.	8a	.	.
.	8f	.	.
.	8c	.	.
=175	=175	=175	=175
[2ccc	8A	1r	1r
.	8f	.	.
.	8c	.	.
.	8A	.	.
8ccc]	8F	.	.
16ddd	8A	.	.
16ccc	.	.	.
16bb-	8d	.	.
16aa	.	.	.
16gg	8c	.	.
16ff	.	.	.
=176	=176	=176	=176
8gg	8B-	1r	1r
8r	8G	.	.
8gg	8A	.	.
8r	8B-	.	.
8ee	8c	.	.
8r	8B-	.	.
8ee	8A	.	.
8r	8G	.	.
=177	=177	=177	=177
4ff	4F	8r	2ff
.	.	8ccc	.
2.r	2.r	8aa	.
.	.	8ff	.
.	.	8cc	2aa
.	.	8aa	.
.	.	8ff	.
.	.	8cc	.
=178	=178	=178	=178
1DD	4f#	8a	[2ccc
.	.	8ee-	.
.	4e-	8cc	.
.	.	8a	.
.	4d	8f#	8ccc]
.	.	8a	16ddd
.	.	.	16ccc
.	4c	8d	16bb-
.	.	.	16aa
.	.	8a	16gg
.	.	.	16ff#
=179	=179	=179	=179
8GG	8B-	8g	8ddd
8r	8d	8r	8r
8GG	8B-	8g	8ddd
8r	8d	8r	8r
8C	8G	8b-	8ee
8r	8c	8r	8r
8C	8G	8b-	8ee
8r	8c	8r	8r
=180	=180	=180	=180
[1F	8F	8a	2ff
.	8f	8ff	.
.	8g	8gg	.
.	8f	8ff	.
.	8e	8ee	2aa
.	8e-	8ee-	.
.	8f	8ff	.
.	8e-	8ee-	.
=181	=181	=181	=181
1F]	8d	8dd	[2bb-
.	8d-	8dd-	.
.	8e-	8ee-	.
.	8d-	8dd-	.
.	8c	8cc	8bb-]
.	8B-	8b-	16ccc
.	.	.	16bb-
.	8c	8cc	16aa
.	.	.	16gg
.	8B-	8b-	16ff
.	.	.	16ee
=182	=182	=182	=182
[1FF	8A	8a	2ff
.	8f	8ff	.
.	8g	8gg	.
.	8f	8ff	.
.	8e	8ee	2aa
.	8e-	8ee-	.
.	8f	8ff	.
.	8e-	8ee-	.
=183	=183	=183	=183
1FF]	8d	8dd	[2bb-
.	8d-	8dd-	.
.	8e-	8ee-	.
.	8d-	8dd-	.
.	8c	8cc	16bb-]
.	.	.	16ccc
.	8B-	8b-	16ddd
.	.	.	16bb-
.	8c	8cc	16aa
.	.	.	16gg
.	8B-	8b-	16ff
.	.	.	16ee
=184	=184	=184	=184
2f	2f	2ff	2ff
2f#	2f#	2ff#	2ff#
=185	=185	=185	=185
[2g	[2g	[2gg	[2gg
8g]	8g]	8gg]	8gg]
16f	16f	16ff	16ff
16e-	16e-	16ee-	16ee-
16d	16d	16dd	16dd
16c	16c	16cc	16cc
16B-	16B-	16b-	16b-
16A	16A	16a	16a
=186	=186	=186	=186
[2e-	[2e-	[2ee-	[2ee-
8e-]	8e-]	8ee-]	8ee-]
16d	16d	16dd	16dd
16c	16c	16cc	16cc
16B-	16B-	16b-	16b-
16A	16A	16a	16a
16G	16G	16g	16g
16F#	16F#	16f#	16f#
=187	=187	=187	=187
[2d-	[2d-	[2dd-	[2dd-
8d-]	8d-]	8dd-]	8dd-]
16c	16c	16cc	16cc
16B-	16B-	16b-	16b-
16A-	16A-	16a-	16a-
16G	16G	16g	16g
16F	16F	16f	16f
16E	16E	16e	16e
=188	=188	=188	=188
4A-	4a-	4a-	4a-
4BB	4B	4B	4B
2r	2r	2r	2r
=189	=189	=189	=189
4A	8f 8c	8a	2r
.	8f 8c	8a	.
4C	8f 8c	8a	.
.	8f 8c	8a	.
2r	8f 8c	8a	8a
.	8f 8c	8a	8b-
.	8f 8c	8a	8b
.	8f 8c	8a	8cc
=190	=190	=190	=190
4AA	8f 8c	8a	2r
.	8f 8c	8a	.
4CC	8f 8c	8a	.
.	8f 8c	8a	.
2r	8f 8c	8a	8aa
.	8f 8c	8a	8bb-
.	8f 8c	8a	8bb
.	8f 8c	8a	8ccc
=191	=191	=191	=191
4B-	8f 8c	8g	2r
.	8f 8c	8g	.
4C	8f 8c	8g	.
.	8f 8c	8g	.
2r	8f 8c	8g	8f#
.	8f 8c	8g	8g
.	8f 8c	8g	8b
.	8f 8c	8g	8cc
=192	=192	=192	=192
4BB-	8e 8c	8g 8B-	2r
.	8e 8c	8g 8B-	.
4CC	8e 8c	8g 8B-	.
.	8e 8c	8g 8B-	.
2r	8e 8c	8g 8B-	8ff#
.	8e 8c	8g 8B-	8gg
.	8e 8c	8g 8B-	8ddd
.	8e 8c	8g 8B-	8ccc
=193	=193	=193	=193
4FF	4f 4c	8f 8A	2r
.	.	8f 8A	.
4F	4r	8f 8A	.
.	.	8f 8A	.
2r	8f	8e- 8c	4aa
.	8a	8e- 8c	.
.	8cc	8e- 8c	4f
.	8ee-	8e- 8c	.
=194	=194	=194	=194
4FF	2r	8d 8B-	2r
.	.	8d 8B-	.
4F	.	8d 8B-	.
.	.	8d 8B-	.
2r	4b-	8e 8G	8ddd
.	.	8e 8G	8bb-
.	4C	8e 8G	8gg
.	.	8e 8G	8ee
=195	=195	=195	=195
4FF	2r	8f 8A	2r
.	.	8f 8A	.
4F	.	8f 8A	.
.	.	8f 8A	.
2r	4a	8e- 8c	8ff
.	.	8e- 8c	8aa
.	4F	8e- 8c	8ccc
.	.	8e- 8c	8eee-
=196	=196	=196	=196
4FF	2r	8d 8B-	2r
.	.	8d 8B-	.
4F	.	8d 8B-	.
.	.	8d 8B-	.
4r	8b-	8e 8G	4ddd
.	8g	8e 8G	.
4CC	8e	8g 8B-	4e
.	8B-	8g 8B-	.
=197	=197	=197	=197
4FF	8A	8f	2r
.	8A	8c	.
4F	8A	8c	.
.	8A	8c	.
2r	8A	8c	4f
.	8A	8c	.
.	8A	8c	4ff
.	8A	8c	.
=198	=198	=198	=198
4F	4A	4c	2r
4f	2.r	2.r	.
2r	.	.	4ff
.	.	.	4fff
==	==	==	==
*-	*-	*-	*-
!!!RWG1: This file contains only pitch and duration data.
!!!RWG2: Transposing instruments are not transposed.
!!!RWG3: Spines may have incompatible meters.
!!!RWG4: Durations of rests and tied notes may be interpreted.
!!!RWG: Key is interpreted using the Humdrum key tool.
!!!AFT: stage1
!!!END: 1997/04/15
!!!KEY: 3428185317
!!!EMD: Converted from MuseData to Humdrum Dec 16, 2000, by Andreas Kornstaedt using muse2kern.
!!!EMD: Manual editing by Craig Sapp, Nov 2001
